X:414
T: "Die Feldwacht"
N: Z1094
O: Europa, Mitteleuropa, Deutschland, Schwaben
R: Romanze, Ballade, verlassene Liebe
M: 3/4
L: 1/16
K: F
C2F2G2 | F2c2B2A2G2F2 | G4z2
c2A2B2 | c4d2c2B2A2 | B4c2c2A2cB | A4z2
C2F2G2 | F2c2B2A2G2F2 | G4z2
c2A2B2 | c4d2c2B2A2 | B4c2cBA2G2 | F4z2

